BigSur-Originals/apps/symbolic/org.gnome.Lollypop-unplayed-albums-symbolic.svg

<svg width="16" height="16" version="1.1" xmlns="http://www.w3.org/2000/svg">
 <path d="m8.139 2e-3a7 7 0 0 0-0.493 8e-3h-6e-3a7 7 0 0 0-6.632 6.648 7 7 0 0 0 2e-3 0.7 7 7 0 0 0 0.064 0.642h1.018a6 6 0 0 1-0.084-0.693 6 6 0 0 1 5.685-6.299h4e-3a6 6 0 0 1 6.295 5.687 6 6 0 0 1-0.08 1.305h1.008a7 7 0 0 0 0.07-1.355 7 7 0 0 0-6.85-6.643zm-0.139 3.998a3 3 0 0 0-3 3 3 3 0 0 0 0.176 1h1.709a1.5 1.5 0 0 1-0.385-1 1.5 1.5 0 0 1 1.5-1.5 1.5 1.5 0 0 1 1.5 1.5 1.5 1.5 0 0 1-0.385 1h1.711a3 3 0 0 0 0.174-1 3 3 0 0 0-3-3zm-8 5v3.006c0.015 1.258-0.03 2.179 0.385 2.932 0.207 0.376 0.56 0.673 0.998 0.837 0.438 0.165 0.96 0.225 1.617 0.225h10c0.658 0 1.179-0.06 1.617-0.225 0.439-0.164 0.789-0.461 0.996-0.838 0.415-0.752 0.372-1.673 0.387-2.931v-3.006zm0.977 1.016h14.002c-0.025 1.311 5e-3 2.595-0.067 3.873-0.026 0.622-0.592 1.093-1.201 1.056-3.607 0.073-7.253 0.052-10.861 0.024-0.65 0.04-1.553-0.088-1.715-0.852-0.163-0.905-0.097-1.84-0.139-2.758l-0.02-1.343zm5.023 0.984v1h4v-1z" fill="#363636"/>
</svg>

<svg height="16" width="16" xmlns="http://www.w3.org/2000/svg"><path d="M8.139.002a7 7 0 00-.493.008H7.64a7 7 0 00-6.632 6.648 7 7 0 00.002.7A7 7 0 001.074 8h1.018a6 6 0 01-.084-.693 6 6 0 015.685-6.299h.004a6 6 0 016.295 5.687A6 6 0 0113.912 8h1.008a7 7 0 00.07-1.355A7 7 0 008.14.002zM8 4a3 3 0 00-3 3 3 3 0 00.176 1h1.709A1.5 1.5 0 016.5 7 1.5 1.5 0 018 5.5 1.5 1.5 0 019.5 7a1.5 1.5 0 01-.385 1h1.711A3 3 0 0011 7a3 3 0 00-3-3zM0 9v3.006c.015 1.258-.03 2.179.385 2.932.207.376.56.673.998.837.438.165.96.225 1.617.225h10c.658 0 1.179-.06 1.617-.225.439-.164.789-.461.996-.838.415-.752.372-1.673.387-2.931V9zm.977 1.016h14.002c-.025 1.311.005 2.595-.067 3.873-.026.622-.592 1.093-1.201 1.056-3.607.073-7.253.052-10.861.024-.65.04-1.553-.088-1.715-.852-.163-.905-.097-1.84-.139-2.758l-.02-1.343zM6 11v1h4v-1z" fill="#363636"/></svg>
